dip-switch.svg

<svg fill="currentColor" viewBox="0 0 24 24"><path d="M3 4h4a1 1 0 0 1 1 1v14a1 1 0 0 1-1 1H3a1 1 0 0 1-1-1V5a1 1 0 0 1 1-1m7 0h4a1 1 0 0 1 1 1v14a1 1 0 0 1-1 1h-4a1 1 0 0 1-1-1V5a1 1 0 0 1 1-1m7 0h4a1 1 0 0 1 1 1v14a1 1 0 0 1-1 1h-4a1 1 0 0 1-1-1V5a1 1 0 0 1 1-1M4 18h2v-5H4zm7-7h2V6h-2zm7 7h2v-5h-2z"/></svg>

<svg  viewBox="0 0 24 24" fill="currentColor"><path  d="M3,4H7A1,1 0 0,1 8,5V19A1,1 0 0,1 7,20H3A1,1 0 0,1 2,19V5A1,1 0 0,1 3,4M10,4H14A1,1 0 0,1 15,5V19A1,1 0 0,1 14,20H10A1,1 0 0,1 9,19V5A1,1 0 0,1 10,4M17,4H21A1,1 0 0,1 22,5V19A1,1 0 0,1 21,20H17A1,1 0 0,1 16,19V5A1,1 0 0,1 17,4M4,18H6V13H4V18M11,11H13V6H11V11M18,18H20V13H18V18Z"/></svg>
